X:543
T: Mllerlied (243a), S. 520
N: T0431
O: Luxemburg
S: Singendes Volk, Esch-Alzette, 1937 posth.]
N: Reuland, hhh Heinrich Ernzen, 1908
N: 243b)- Junglinster, hhh Nikolaus Dickes, um 1900
R: Berufslied]
M: 6/8
L: 1/8
K: G
D | G2BA2G | F2AG2
E | E2EGFE | E2DD2
d | ddBd2e | d3B2
B | d^cBABA | GFED2
D | GGGA2B | A3G2

@@@ Tune index: 8597
